X:4
T:The Warlocks
Z:Jack Campin  2006  http://www.campin.me.uk/
C:Robert Lowe
N:Written to go with his father's reel "The Witches".
M:C
L:1/8
Q:1/4=108
K:E Minor
 e|B<EG>F E2  EF/G/   |A<d A>F       D2  D<d     |
   B<EG>F E>B e>f     |g>e g/f/e/^d/ e2  e      :|
 B|e>gB>g e<B e/f/g/e/|f>ad>a        f<d f/g/a/f/|
[1 e>gB>g eB  e/f/g/e/|d>BA<F        E2  E      :|
[2 e<gf<e d>B A<F     |G<BA<F        E2  E      |]

